X: 74
T:Aye me
T:The Simphony
M:C|
L:1/8
Q:200
H:Symphony in this period means a harmony or concord, rather than a
H:specific musical form.
K:C
g4 e4|d2 BA G2AB|c2c2 d2d2|e6 ee|e2 fg a2 cc|c2 de f2 AA|BG e2 d3c|c8||
A2 AB c2 Bc|d2G2 G2 ee|e2 de efed|d6 gg|a2 ee f2 ^ff|g2 dc B2 gg|a2 e2 d
3
c|c8||

